X:1
T:François' Hornpipe
C:François Champs
R:Hornpipe
M:4/4
K:D
FG |: AdAG FDEF | (3GGG GA GFED | CA,B,D (3GGG GA | GBAG E2FG |
      AdAG FDEF | (3GGG GA GFED | CA,B,D (3GGG GA |1 EDFE D2FG :|2 EDFE D2BA
   |: BEED EBBA | BABc dBAG | FADB, B,A,B,D | (3GGG GA GFEA |
      B2ED EBBA | BABc dBAG | FADB, B,A,B,D |1 EDFE D2BA :|2 EDFE D2FG ||
